!!! OTL: Berkowitz59
!!! Chapter: 1
!!! Section: I
!!! Page: 17
!!! Mode: 
!!! Encoder: DJB
**kern
*staff1
*I"Piano
=1-
*clefG2
*k[]
*C:
*M3/4
4f/
4a/
4cc\
=2
4.dd\
8cc\
8b/L
8a/J
=3
4g/
4f/
4g/
=4
2a/
4cc\
=5
4ff\
4ee\
4dd\
=6
2cc\
4a/
=7
8b/L
8a/J
8b\L
8cc\J
4a/
=8
2g/
4a/
=9
2f/
4a/
=10
4cc\
4dd\
4ee\
=11
2ff\
4cc\
=12
!!linebreak:original
2a/
4b\
=13
4cc\
4a/
4f/
=14
4cc\
4b\
4a/
=15
4cc\
4ff\
4f/
=16
4.g/
8a/
4g/
=17
2.f/
==
*-
